!!!!SEGMENT: Distler_Jahrkreis_31_Gott-ist-unsre-Zuversicht.krn
!!!COM: Distler, Hugo
!!!CDT: 1908-1942
!!!OPR@@DE: Der Jahrkreis
!!!OPR@EN: The Year Cycle
!!!OTL@@DE: Gott ist unsre Zuversicht
!!!OTL@EN: ...
!!!OPS: 5
!!!ONM: 31
**kern	**text	**kern	**text	**kern	**text
*part3	*part3	*part2	*part2	*part1	*part1
*staff3	*staff3	*staff2	*staff2	*staff1	*staff1
*Ialto	*	*Isoprn	*	*Isoprn	*
*clefG2	*	*clefG2	*	*clefG2	*
*k[]	*	*k[]	*	*k[]	*
*MM120	*	*MM120	*	*MM120	*
*M4/4	*	*M4/4	*	*M4/4	*
=1	=1	=1	=1	=1	=1
(2c	Gott,	(2g	Gott,	(2cc	Gott,
[2d	.	[2a	.	[2dd	.
=2	=2	=2	=2	=2	=2
4d]	.	4a]	.	4dd]	.
4f	.	4cc	.	4ff	.
4d	.	4a	.	4dd	.
4c	.	4g	.	4cc	.
=3	=3	=3	=3	=3	=3
*M3/4	*	*M3/4	*	*M3/4	*
4A	.	4e	.	4a	.
2c	.	2g	.	2cc	.
=4	=4	=4	=4	=4	=4
*M4/4	*	*M4/4	*	*M4/4	*
2d),	.	4a),	.	4dd),	.
.	.	4a	ist	4dd	ist
4d	uns-	4a	uns-	4dd	uns-
4d	re	4g	re	4cc	re
!!LO:LB:g=original
=5	=5	=5	=5	=5	=5
4.b-	Zu-	4a	Zu-	4dd	Zu-
.	.	4a	ver-	4dd	ver-
8a	ver-	.	.	.	.
4g,	sicht	4a,	sicht	4dd,	sicht
4d	und	4cc	und	4cc	und
=6	=6	=6	=6	=6	=6
(2b-	Staer-	4a	uns-	4ee	uns-
.	.	4g	re	4cc	re
2a)	.	2a	Staer-	2dd	Staer-
=7	=7	=7	=7	=7	=7
4g,	ke	4bn,	ke	4dd,	ke
8g	in	8b	in	8dd	in
8g	den	8b	den	8dd	den
4b-	gro-	4dd	gro-	4ff	gro-
4a	ssen	4cc	ssen	4ee	ssen
=8	=8	=8	=8	=8	=8
4g	Noe-	4bn	Noe-	4dd	Noe-
8g,	ten,	8b,	ten,	8dd,	ten,
8g	den	8b	den	8dd	den
4b-	gro-	4dd	gro-	4ff	gro-
4a	ssen	4cc	ssen	4ee	ssen
!!LO:LB:g=original
=9	=9	=9	=9	=9	=9
4g	Noe-	4b	Noe-	4dd	Noe-
8g,	ten,	8b,	ten,	8dd,	ten,
8g	die	8b	die	8dd	die
2e	uns	4b	uns	2ee	uns
.	.	4cc	be-	.	.
=10	=10	=10	=10	=10	=10
4f	be-	2a	trof-	4cc	be-
2d	trof-	.	.	2dd	trof-
.	.	4a,	fen,	.	.
4e	fen	8a	uns	4cc	fen
.	.	8a	be-	.	.
=11	=11	=11	=11	=11	=11
1e	ha-	2a	trof-	1b	ha-
.	.	2g	fen	.	.
=12	=12	=12	=12	=12	=12
2A,	ben!	2e	ha-	[1cc#	ben!
4r	.	[2a	ben!	.	.
4f#	Dar-	.	.	.	.
!!LO:LB:g=original
=13	=13	=13	=13	=13	=13
2.f#,	um,	2a]	.	2cc#]	.
.	.	4r	.	4r	.
2f#	da-	1r	.	1r	.
4f#	rum	.	.	.	.
4f#	fuerch-	.	.	.	.
4f#	ten	2.r	.	2.r	.
4f#	wir	.	.	.	.
4e	uns	.	.	.	.
(2c#	nicht,	1r	.	1r	.
4f#),	.	.	.	.	.
4f#	wenn	.	.	.	.
4f#	gleich	1r	.	1r	.
4f#	die	.	.	.	.
2a	Welt	.	.	.	.
4g#	un-	1r	.	1r	.
4f#	ter-	.	.	.	.
2e	gin-	.	.	.	.
!!LO:LB:g=original
=14	=14	=14	=14	=14	=14
*M4/4	*	*M4/4	*	*M4/4	*
*met(C)	*	*met(C)	*	*met(C)	*
2f#	ge.	2r	.	4r	.
.	.	.	.	4f#	Den-
2r	.	4r	.	[2b	noch,
.	.	4b	Den-	.	.
=15	=15	=15	=15	=15	=15
1e	Den-	2.g,	noch,	4b],	.
.	.	.	.	4g	den-
.	.	.	.	[2cc	noch,
.	.	4cc	den-	.	.
=16	=16	=16	=16	=16	=16
2fn	noch	2.a,	noch,	4cc],	.
.	.	.	.	4a	den-
4e	soll	.	.	[2dd	noch
4d	die	4dd	den-	.	.
=17	=17	=17	=17	=17	=17
1g	Stadt	4b	noch	4dd]	.
.	.	4.b	soll	4.dd	soll
.	.	8b	die	8dd	die
.	.	4b	Stadt	4dd	Stadt
=18	=18	=18	=18	=18	=18
2c	Got-	(2cc	Got-	2ee	Got-
4e	tes	4b	.	4ee	tes
4g	fein	4a)	.	4dd	fein
!!LO:LB:g=original
=19	=19	=19	=19	=19	=19
(2c	lu-	4g	tes	(4.ee	lu-
.	.	4f	fein	.	.
.	.	.	.	8ddL	.
4e)	.	4e	lu-	8cc	.
.	.	.	.	8bJ	.
4g	stig	4d	stig	[4a	.
=20	=20	=20	=20	=20	=20
1c	blei-	1e	blei-	4a])	.
.	.	.	.	4g	stig
.	.	.	.	2a	blei-
=21	=21	=21	=21	=21	=21
2d	ben!	2f#	ben!	4a,	ben!
.	.	.	.	4f#	Den-
2r	.	4r	.	[2b	noch,
.	.	4b	Den-	.	.
=22	=22	=22	=22	=22	=22
1e	Den-	2.g,	noch,	4b],	.
.	.	.	.	4g	den-
.	.	.	.	[2cc	noch,
.	.	4cc	den-	.	.
=23	=23	=23	=23	=23	=23
2fn	noch	2.a,	noch,	4cc],	.
.	.	.	.	4a	den-
4e	soll	.	.	[2dd	noch
4d	die	4dd	den-	.	.
!!LO:LB:g=original
=24	=24	=24	=24	=24	=24
1g	Stadt	4b	noch	4dd]	.
.	.	4.b	soll	4.dd	soll
.	.	8b	die	8dd	die
.	.	4b	Stadt	4dd	Stadt
=25	=25	=25	=25	=25	=25
2c	Got-	(2cc	Got-	2ee	Got-
4e	tes	4b	.	4ee	tes
4g	fein	4a)	.	4dd	fein
=26	=26	=26	=26	=26	=26
(2c	lu-	4g	tes	(4.ee	lu-
.	.	4f	fein	.	.
.	.	.	.	8ddL	.
4e)	.	4e	lu-	8cc	.
.	.	.	.	8bJ	.
4g	stig	4d	stig	[4a	.
=27	=27	=27	=27	=27	=27
1c	blei-	1e	blei-	4a])	.
.	.	.	.	4g	stig
.	.	.	.	2a	blei-
=28	=28	=28	=28	=28	=28
1g	ben.	1d	ben.	1b	ben.
==	==	==	==	==	==
*-	*-	*-	*-	*-	*-
!!!YOR: Bärenreiter-Ausgabe 676
!!!YOY: 1933
!!!EFL: 31/52
!!!URL-pdf: https://imslp.eu/files/imglnks/euimg/7/7d/IMSLP834545-PMLP518834-5-jahrkreis-EA--original-paper-600dpi.pdf#page=58 First edition, Kassel: Bärenreiter, 1933. Plate BA 676.
!!!URL-imslp: https://imslp.org/wiki/Der_Jahrkreis,_Op.5_(Distler,_Hugo)#IMSLP834545
!!!system-decoration: [(s1,s2,s3)]
!!!ENC: Lucas Hofmann
!!!END: 2023/11/12
!!!title: @{OPR@@DE}, Op. @{OPS}, Nr. @{ONM}. @{OTL@@DE}
